outputs/icons/communication/location_off_round.svg

<svg xmlns="http://www.w3.org/2000/svg" width="1200" height="1200" fill="none"><path fill="#000" d="M700 500V163c-32.5-8.5-66-13-100-13-210 0-400 161-400 410 0 166 133.5 362.5 400 590 266.5-227.5 400-424 400-590 0-20.5-2-40.5-4.5-60zM600 650c-55 0-100-45-100-100s45-100 100-100 100 45 100 100-45 100-100 100"/><path fill="#000" d="M1091.415 179.415c19.64-19.547 19.675-51.325.085-70.917-19.595-19.592-51.37-19.555-70.92.083L950 179.498l-70.585-70.917c-19.545-19.638-51.325-19.675-70.915-.083-19.595 19.592-19.555 51.37.08 70.917l70.92 70.583-70.92 70.584c-19.635 19.546-19.675 51.324-.08 70.916 19.59 19.592 51.37 19.555 70.915-.084L950 320.498l70.58 70.916c19.55 19.639 51.325 19.676 70.92.084 19.59-19.592 19.555-51.37-.085-70.916l-70.915-70.584z"/></svg>

<svg width="1200" height="1200" viewBox="0 0 1200 1200" fill="none" xmlns="http://www.w3.org/2000/svg"><path d="M700 500V163C667.5 154.5 634 150 600 150C390 150 200 311 200 560C200 726 333.5 922.5 600 1150C866.5 922.5 1000 726 1000 560C1000 539.5 998 519.5 995.5 500H700ZM600 650C545 650 500 605 500 550C500 495 545 450 600 450C655 450 700 495 700 550C700 605 655 650 600 650Z" fill="#1D1E23"/><path d="M1091.415 179.415C1111.055 159.868 1111.09 128.09 1091.5 108.498C1071.905 88.906 1040.13 88.943 1020.58 108.581L950 179.498L879.415 108.581C859.87 88.943 828.09 88.906 808.5 108.498C788.905 128.09 788.945 159.868 808.58 179.415L879.5 249.998L808.58 320.582C788.945 340.128 788.905 371.906 808.5 391.498C828.09 411.09 859.87 411.053 879.415 391.414L950 320.498L1020.58 391.414C1040.13 411.053 1071.905 411.09 1091.5 391.498C1111.09 371.906 1111.055 340.128 1091.415 320.582L1020.5 249.998L1091.415 179.415Z" fill="#1D1E23"/></svg>
